svg/24/notification-off--filled.svg

<svg width="24" height="24" viewBox="0 0 24 24" fill="currentColor" xmlns="http://www.w3.org/2000/svg"><path fill-rule="evenodd" clip-rule="evenodd" d="M2.21967 21.7803C1.92678 21.4874 1.92678 21.0126 2.21967 20.7197L20.7197 2.21967C21.0126 1.92678 21.4874 1.92678 21.7803 2.21967C22.0732 2.51256 22.0732 2.98744 21.7803 3.28033L17.7569 7.30378C17.9151 7.84165 18 8.41091 18 9V12L19.4142 13.4142C19.7893 13.7893 20 14.298 20 14.8284V16C20 17.1046 19.1046 18 18 18H15.873C15.6958 18.686 15.338 19.3189 14.8284 19.8284C14.0783 20.5786 13.0609 21 12 21C10.9391 21 9.92172 20.5786 9.17157 19.8284C8.66203 19.3189 8.30416 18.686 8.12701 18H7.06066L3.28033 21.7803C2.98744 22.0732 2.51256 22.0732 2.21967 21.7803ZM9.70871 18C9.83253 18.2837 10.0091 18.5447 10.2322 18.7678C10.7011 19.2366 11.337 19.5 12 19.5C12.663 19.5 13.2989 19.2366 13.7678 18.7678C13.9909 18.5447 14.1675 18.2837 14.2913 18H9.70871Z"/><path d="M4.12457 16.6964L16.1522 4.66876C15.0743 3.63516 13.6113 3 12 3C8.68629 3 6 5.68629 6 9V12L4.58579 13.4142C4.21071 13.7893 4 14.298 4 14.8284V16C4 16.2449 4.04402 16.4795 4.12457 16.6964Z"/></svg>

<svg xmlns="http://www.w3.org/2000/svg" width="24" height="24" fill="currentColor" viewBox="0 0 24 24">
  <path fill-rule="evenodd" d="M2.22 21.78a.75.75 0 0 1 0-1.06l18.5-18.5a.75.75 0 1 1 1.06 1.06l-4.023 4.024C17.915 7.842 18 8.41 18 9v3l1.414 1.414A2 2 0 0 1 20 14.828V16a2 2 0 0 1-2 2h-2.127a4 4 0 0 1-7.746 0H7.061l-3.78 3.78a.75.75 0 0 1-1.061 0ZM9.709 18a2.5 2.5 0 0 0 4.582 0H9.71Z" clip-rule="evenodd"/>
  <path d="M4.125 16.696 16.152 4.67A6 6 0 0 0 6 9v3l-1.414 1.414A2 2 0 0 0 4 14.828V16c0 .245.044.48.125.696Z"/>
</svg>
